X:65
T:Scotìs di Caffaro - Second fiddle(s)  WARNING: DRAFT 1.7.6 abc!!!!
R:scottish
C:trad.
P:AABBACC
M:2/4
N:see transcription of the part played by the first fiddle(s) 
L:1/16
K:D
P:A
DE | F2FG PF2DE | F2G2 PF2d2 | Pc2cd eedc | e2d2 A2 DE |
F2FG F2DE | F2G2 F2d2 | c2cd eedc | d2A2 D2 :|
K:A
P:B
zA | f2f2 e3e  | c2c2 c2ed | c2cd cBAG | B2A2 E3A |
f2f2 Pe3e | c2c2 c2ed | c2cd cBAG | A2E2 A,2 :|
P:C
K:G
zB | G3B G3B | d2d2 d2cB | A2AB ccBA | c2PB2 G3B |
G3B G3B | d2d2 d2eB | A2AB ccBA | G2D2 G,2 :|

